X:1
T:Title
%%score ( 1 2 ) ( 3 4 )
L:1/8
Q:1/4=100
M:4/4
K:Eb
V:1 treble nm="French Horn, Soprano"
V:2 treble 
V:3 bass nm="Choir Pad, Santiago de Compostela"
V:4 bass 
V:1
 [EG]2 [EG]2 [EG][EG][EG][EG] | B=A [E_A]2 z2 [DA][EG] | [EF]2 [DF]2 [EB]2 A-[DA] | %3
w: By~G.~W.~Jackson,~1871 * * * * *|||
 [EG]4 z2 [GB][GB] | [GB]3 [GB] [GB]2 [GB]2 | [EB]2 [EA]2 z2 [CA][CF] | [B,E]3 [B,E] [B,G]3 [B,F] | %7
w: ||||
 F4 z4 | [CE]3 [CE] [CE][CE][=B,D][CE] | .A2 z2 z4 | z4 z2 z A | [EG]6 z2 | %12
w: |||||
 [GB]3 [GB] [_G=A][=GB] [Ge]>[EG] | [EB]2 [EA]2 z2 [CG][CF] | [B,E]3 [B,E] [B,G]2 [B,F]2 | %15
w: |||
 [B,E]6 z2 | E3 [EF] [EG][EA][EB][Ec] | .B2 z2 z4 | [=Ec]3 [Fc] [Gc][GB][FA][EG] | F6 z2 | %20
w: |||||
 [Ee]3 [Ad] [Ge][Ge][Gf][Ge] | [Ae]2 [Ec]2 z2 [CA][CF] | [B,E]3 [B,E] [B,G]3 [B,F] | F4 z4 |] %24
w: ||||
V:2
 x8 | E2 z2 z4 | z4 z2 .E2 | x8 | x8 | x8 | x8 | B,4- [B,E]2 z2 | x8 | D-[DG] [DG]4 z2 | %10
 [DF]3 [DF] [_D=E][=DF] [EB]E/D/ | x8 | x8 | x8 | x8 | x8 | x8 | E-[EA] E2 z4 | x8 | x8 | x8 | x8 | %22
 x8 | B,4- [B,E]4 |] %24
V:3
 [E,B,]2 [E,B,]2 [E,B,][E,B,][D,B,][_D,B,] | [C,C]2 [F,C]2 z2 [F,B,][E,B,] | %2
 [B,,B,]2 [B,,A,]2 [B,,G,]2 F,B, | [E,B,]4 z2 [E,B,][E,B,] | [E,B,]3 [E,E] [E,D]2 [E,_D]2 | %5
 [E,C]2 [E,C]2 z2 [A,,F,][A,,A,] | [B,,G,]3 [B,,G,] [B,,A,]3 [D,A,] | A,4 G,2 z2 | %8
 [C,G,]3 [C,G,] [C,_G,][C,=G,][C,A,][C,G,] | [C,F,]2 [=B,,F,]4 z2 | z4 z2 z .F, | [E,B,]6 z2 | %12
 [E,_D]3 [E,D] [E,C][E,D] [E,D]>[E,D] | [E,C]2 [E,C]2 z2 [A,,A,][A,,A,] | %14
 [B,,G,]3 [B,,G,] [B,,A,]2 [D,A,]2 | A,4 G,2 z2 | [E,_D]3 [E,D] [E,D][E,D][E,D][E,D] | %17
 [E,C]2 [E,C]2 z4 | [C,C]3 [D,C] [=E,C][E,C][F,C][B,C] | [A,C]6 z2 | %20
 [G,B,]3 B, [E,B,][E,_D][E,D][E,D] | [E,C]2 A,2 z2 [A,,F,][A,,A,] | %22
 [B,,G,]3 [B,,G,] [B,,A,]3 [D,A,] | A,4 G,4 |] %24
V:4
 x8 | x8 | z4 z2 B,,2 | x8 | x8 | x8 | x8 | E,6 z2 | x8 | x8 | %10
 [B,,A,]3 [B,,A,] [B,,G,][B,,A,] [B,,G,]B,,/-[B,,B,]/ | x8 | x8 | x8 | x8 | E,6 z2 | x8 | x8 | x8 | %19
 x8 | x8 | x8 | x8 | E,8 |] %24

